svg/600/outlined/glass_cup-fill.svg

<svg xmlns="http://www.w3.org/2000/svg" width="48" height="48" viewBox="0 -960 960 960"><path d="M268.783-65.869q-30.348 0-53.501-20.087-23.152-20.087-25.717-49.87l-83.696-758.87h748.827l-83.695 758.87Q767.87-106.043 745-85.956 722.13-65.87 691.782-65.87H268.783Zm-20.131-256.436h462.696l54.304-492.608H194.348l54.304 492.608Z"/></svg>

<svg xmlns="http://www.w3.org/2000/svg" width="48" height="48" viewBox="0 -960 960 960"><path d="M268.78-65.87q-30.35 0-53.5-20.09-23.15-20.08-25.72-49.87L105.87-894.7H854.7L771-135.83q-3.13 29.79-26 49.87-22.87 20.09-53.22 20.09h-423ZM248.65-322.3h462.7l54.3-492.61h-571.3l54.3 492.61Z"/></svg>
